X: 235
T: Bally Patrick
B: O'Neill's 235
N: "With spirit"
N: "Collected by J.O'Neill"
Z: 1997 by John Chambers <jc@trillian.mit.edu>
N: The second part has 15 bars.
M: 3/4
L: 1/8
K:G
D2 \
|D2 G2 .G2|G3 FGA|.B2 .B2 .B2|B3 zBA \
|.G2 .G2 .G2|G3 cBG|A2 F2 .D2|D3 zBc|
|.d2 .d2 .d2|g2 d2 B2|B2 A2 B2|c3 def \
|d2 B2 G2|G3 ABG|F2 D2 D2|D4||
||DE \
|G4 GA|B2 B2 cB|A2 G2 zB/c/|~d3 efe \
|dc B2 cA|ABA2 G2 G2|G3 EDC|.B,2 .C2 .D2|
|G4 GA|B2 B2 cB|A2 G2 Bc|~d3 efe \
|dc TB2 cA|ABA2 G2 G2|G4||
